resources/haticons/SVG/dice.svg

<!-- Generated by IcoMoon.io -->
<svg version="1.1" xmlns="http://www.w3.org/2000/svg" width="24" height="24" viewBox="0 0 24 24">
<title>dice</title>
<path d="M20.25 4.5h-12c-2.063 0-3.75 1.688-3.75 3.75v12c0 2.063 1.688 3.75 3.75 3.75h12c2.063 0 3.75-1.688 3.75-3.75v-12c0-2.063-1.688-3.75-3.75-3.75zM9.75 21c-1.243 0-2.25-1.007-2.25-2.25s1.007-2.25 2.25-2.25 2.25 1.007 2.25 2.25-1.007 2.25-2.25 2.25zM9.75 12c-1.243 0-2.25-1.007-2.25-2.25s1.007-2.25 2.25-2.25 2.25 1.007 2.25 2.25-1.007 2.25-2.25 2.25zM14.25 16.5c-1.243 0-2.25-1.007-2.25-2.25s1.007-2.25 2.25-2.25 2.25 1.007 2.25 2.25-1.007 2.25-2.25 2.25zM18.75 21c-1.243 0-2.25-1.007-2.25-2.25s1.007-2.25 2.25-2.25 2.25 1.007 2.25 2.25-1.007 2.25-2.25 2.25zM18.75 12c-1.243 0-2.25-1.007-2.25-2.25s1.007-2.25 2.25-2.25 2.25 1.007 2.25 2.25-1.007 2.25-2.25 2.25zM19.424 3c-0.35-1.706-1.868-3-3.674-3h-12c-2.063 0-3.75 1.688-3.75 3.75v12c0 1.806 1.294 3.324 3 3.674v-14.924c0-0.825 0.675-1.5 1.5-1.5h14.924z"></path>
</svg>

<svg xmlns="http://www.w3.org/2000/svg" width="24" height="24"><path d="M20.25 4.5h-12A3.761 3.761 0 0 0 4.5 8.25v12A3.761 3.761 0 0 0 8.25 24h12A3.761 3.761 0 0 0 24 20.25v-12a3.761 3.761 0 0 0-3.75-3.75zM9.75 21a2.25 2.25 0 1 1 0-4.5 2.25 2.25 0 0 1 0 4.5zm0-9a2.25 2.25 0 1 1 0-4.5 2.25 2.25 0 0 1 0 4.5zm4.5 4.5a2.25 2.25 0 1 1 0-4.5 2.25 2.25 0 0 1 0 4.5zm4.5 4.5a2.25 2.25 0 1 1 0-4.5 2.25 2.25 0 0 1 0 4.5zm0-9a2.25 2.25 0 1 1 0-4.5 2.25 2.25 0 0 1 0 4.5zm.674-9a3.765 3.765 0 0 0-3.674-3h-12A3.761 3.761 0 0 0 0 3.75v12a3.765 3.765 0 0 0 3 3.674V4.5C3 3.675 3.675 3 4.5 3h14.924z"/></svg>
